X: 39179
T: Swing Swang
R: reel
M: 4/4
K: Gmajor
DG~G2 DGBG|DGBG AGFE|DG~G2 F2fe|dBAc BGGE|
DG~G2 DGBG|DGBG AGFE|DGFA G2fe|dBAc BGGA|
BddB deg2|BddB dBA2|BddB dege|dBAc BGGA|
Bd~d2 efgd|BddB dBAB|c2Bc Aage|dBAc BGG2|

